!!!OTL: Seckauer Jodler Hoda rairidi ...
!!!ARE: Europa, Mitteleuropa, Deutschland, Niederbayern
!!!SCT: D0079A
!!!YEM: Copyright 1995, estate of Helmut Schaffrath.
**kern
*ICvox
*Ivox
*M3/4
*k[]
*C:
{8.g
16e
=1
8.g
16ee
8dd
8dd
8.g
16g
=2
8e
8g
4cc
8.r}
{16e
=3
8.g
16ee
8dd
8dd
8.g
16g
=4
8e
8g
4cc
8.r}
{16e
=5
8.g
16ee
8dd
8dd
8.g
16g
=6
8.cc
16gg
8ee
8ee}
{8.cc
16cc
=7
8.g
16ee
8dd
8dd
8.g
16g
=8
8.cc
16gg
8ee
8ee}
{8.cc
16cc
=9
8.g
16ee
8dd
8dd
8.g
16g
=10
8.e
16g
8.cc
16dd
8.ee
16dd
=11
2cc}
==
!!!AGN: Jodler
!! Unterstimme notiert, ergaenzt die Skala zu Pentatonik; Inzipit =     Transposition zum
!!Lied; DVA - Signatur 79A; KEINE Variante zum     vorhergehenden Lied !
!!!ONB: ESAC (Essen Associative Code) Database: DVA
!!!AMT: simple triple
!!!AIN: vox
!!!EED: Helmut Schaffrath
!!!EEV: 1.0
*-
!!!title: @{OTL} [@{SCT}]
